public/assests/icons/arrow-yellow.svg

<svg width="21" height="9" fill="none" xmlns="http://www.w3.org/2000/svg"><path d="M20.3536 4.85209c.1952-.19526.1952-.51185 0-.70711L17.1716.963c-.1953-.19526-.5119-.19526-.7071 0-.1953.19526-.1953.51185 0 .70711l2.8284 2.82843-2.8284 2.82842c-.1953.19526-.1953.51185 0 .70711.1952.19526.5118.19526.7071 0l3.182-3.18198ZM0 4.99854h20v-1H0v1Z" fill="#FFB577"/></svg>

<svg width="21" height="9" viewBox="0 0 21 9" fill="none" xmlns="http://www.w3.org/2000/svg">
<path d="M20.3536 4.85209C20.5488 4.65683 20.5488 4.34024 20.3536 4.14498L17.1716 0.963001C16.9763 0.767739 16.6597 0.767739 16.4645 0.963001C16.2692 1.15826 16.2692 1.47485 16.4645 1.67011L19.2929 4.49854L16.4645 7.32696C16.2692 7.52222 16.2692 7.83881 16.4645 8.03407C16.6597 8.22933 16.9763 8.22933 17.1716 8.03407L20.3536 4.85209ZM0 4.99854L20 4.99854V3.99854L0 3.99854L0 4.99854Z" fill="#FFB577"/>
</svg>
